wp-content/themes/KOOEN/assets/img/common/Vector.svg

<svg fill="none" height="19" viewBox="0 0 46 19" width="46" xmlns="http://www.w3.org/2000/svg" xmlns:xlink="http://www.w3.org/1999/xlink"><linearGradient id="a" gradientUnits="userSpaceOnUse" x1=".001625" x2="46.0053" y1="9.43069" y2="9.43069"><stop offset="0" stop-color="#00a99d"/><stop offset=".00000009653" stop-color="#00a99d"/><stop offset=".9996" stop-color="#00d47f"/><stop offset="1" stop-color="#00d47f"/></linearGradient><path d="m8.29062 14.5548c-.81578-.2818-1.57465-.7044-2.23866-1.2733-.664-.5689-1.15727-1.2245-1.48611-1.918-.25296-.531-.40473-1.0945-.46164-1.66343-.01898-.1788-.01898-.3576 0-.5364.05691-.56891.20868-1.12699.46164-1.66339.32884-.69895.82211-1.34913 1.48611-1.91804.66401-.56891 1.42921-.99153 2.23866-1.27328.81579-.28175 1.68216-.42262 2.54858-.42262.8663 0 1.739.14087 2.5485.42262.8158.28175 1.5746.70437 2.2386 1.27328l4.49 3.84692-4.49 3.84694c-.664.5689-1.4292.9915-2.2386 1.2733-.8158.2817-1.6822.4226-2.5485.4226-.86642 0-1.73279-.1355-2.54858-.4172zm24.32168 0c-.8158-.2818-1.5746-.7044-2.2386-1.2733l-4.49-3.84692 4.49-3.84692c.664-.56892 1.4292-.99153 2.2386-1.27328.8158-.28175 1.6822-.42262 2.5485-.42262.8664 0 1.7391.14087 2.5486.42262.8158.28175 1.5746.70436 2.2386 1.27328.664.56891 1.1573 1.22451 1.4861 1.91804.0506.10294.0949.20589.1329.30884.411 1.04571.411 2.18896 0 3.23466-.038.1029-.0886.2113-.1329.3088-.3288.699-.8221 1.3492-1.4861 1.9181s-1.4292.9915-2.2386 1.2733c-.8158.2817-1.6822.4226-2.5486.4226-.8663.0108-1.7327-.1355-2.5485-.4172zm-1.5304-13.48051c-1.309.45513-2.5358 1.13783-3.5919 2.04267l-4.49 3.84692-4.49-3.84692c-1.0561-.90484-2.2829-1.58754-3.5919-2.04267-1.3091-.455124-2.694-.682688-4.0789-.682688-1.38498 0-2.77624.227564-4.07896.682688-1.30904.45513-2.53588 1.13783-3.59197 2.04267s-1.8529 1.95597-2.384108 3.07753c-.379433.80732-.784162 1.73383-.784162 3.24009 0 1.47372.411053 2.44362.784162 3.24012.531208 1.1215 1.328018 2.1727 2.384108 3.0775s2.28293 1.5875 3.59197 2.0427c1.30905.4551 2.69398.6827 4.07896.6827 1.3849 0 2.7761-.2276 4.0789-.6827 1.309-.4552 2.5358-1.1379 3.5919-2.0427l4.49-3.8469 4.49 3.8469c1.0561.9048 2.2829 1.5875 3.5919 2.0427 1.3091.4551 2.694.6827 4.0789.6827 1.385 0 2.7762-.2276 4.079-.6827 1.309-.4552 2.5358-1.1379 3.5919-2.0427s1.8529-1.956 2.3841-3.0775c.3479-.7369.7842-1.9831.7842-3.24012 0-1.2787-.4616-2.55197-.7842-3.24009-.5312-1.12156-1.328-2.17269-2.3841-3.07753s-2.2829-1.58754-3.5919-2.04267c-1.3028-.455124-2.6877-.67727-4.0726-.67727-1.385 0-2.7762.222146-4.0853.67727z" fill="url(#a)"/></svg>

<svg width="46" height="19" viewBox="0 0 46 19" fill="none" xmlns="http://www.w3.org/2000/svg">
<path d="M8.29062 14.5548C7.47484 14.273 6.71597 13.8504 6.05196 13.2815C5.38796 12.7126 4.89469 12.057 4.56585 11.3635C4.31289 10.8325 4.16112 10.269 4.10421 9.70007C4.08523 9.52127 4.08523 9.34247 4.10421 9.16367C4.16112 8.59476 4.31289 8.03668 4.56585 7.50028C4.89469 6.80133 5.38796 6.15115 6.05196 5.58224C6.71597 5.01333 7.48117 4.59071 8.29062 4.30896C9.10641 4.02721 9.97278 3.88634 10.8392 3.88634C11.7055 3.88634 12.5782 4.02721 13.3877 4.30896C14.2035 4.59071 14.9623 5.01333 15.6263 5.58224L20.1163 9.42916L15.6263 13.2761C14.9623 13.845 14.1971 14.2676 13.3877 14.5494C12.5719 14.8311 11.7055 14.972 10.8392 14.972C9.97278 14.972 9.10641 14.8365 8.29062 14.5548ZM32.6123 14.5548C31.7965 14.273 31.0377 13.8504 30.3737 13.2815L25.8837 9.43458L30.3737 5.58766C31.0377 5.01874 31.8029 4.59613 32.6123 4.31438C33.4281 4.03263 34.2945 3.89176 35.1608 3.89176C36.0272 3.89176 36.8999 4.03263 37.7094 4.31438C38.5252 4.59613 39.284 5.01874 39.948 5.58766C40.612 6.15657 41.1053 6.81217 41.4341 7.5057C41.4847 7.60864 41.529 7.71159 41.567 7.81454C41.978 8.86025 41.978 10.0035 41.567 11.0492C41.529 11.1521 41.4784 11.2605 41.4341 11.358C41.1053 12.057 40.612 12.7072 39.948 13.2761C39.284 13.845 38.5188 14.2676 37.7094 14.5494C36.8936 14.8311 36.0272 14.972 35.1608 14.972C34.2945 14.9828 33.4281 14.8365 32.6123 14.5548ZM31.0819 1.07429C29.7729 1.52942 28.5461 2.21212 27.49 3.11696L23 6.96388L18.51 3.11696C17.4539 2.21212 16.2271 1.52942 14.9181 1.07429C13.609 0.619166 12.2241 0.391602 10.8392 0.391602C9.45422 0.391602 8.06296 0.619166 6.76024 1.07429C5.4512 1.52942 4.22436 2.21212 3.16827 3.11696C2.11218 4.0218 1.31537 5.07293 0.784162 6.19449C0.404729 7.00181 0 7.92832 0 9.43458C0 10.9083 0.411053 11.8782 0.784162 12.6747C1.31537 13.7962 2.11218 14.8474 3.16827 15.7522C4.22436 16.657 5.4512 17.3397 6.76024 17.7949C8.06929 18.25 9.45422 18.4776 10.8392 18.4776C12.2241 18.4776 13.6153 18.25 14.9181 17.7949C16.2271 17.3397 17.4539 16.657 18.51 15.7522L23 11.9053L27.49 15.7522C28.5461 16.657 29.7729 17.3397 31.0819 17.7949C32.391 18.25 33.7759 18.4776 35.1608 18.4776C36.5458 18.4776 37.937 18.25 39.2398 17.7949C40.5488 17.3397 41.7756 16.657 42.8317 15.7522C43.8878 14.8474 44.6846 13.7962 45.2158 12.6747C45.5637 11.9378 46 10.6916 46 9.43458C46 8.15588 45.5384 6.88261 45.2158 6.19449C44.6846 5.07293 43.8878 4.0218 42.8317 3.11696C41.7756 2.21212 40.5488 1.52942 39.2398 1.07429C37.937 0.619166 36.5521 0.39702 35.1672 0.39702C33.7822 0.39702 32.391 0.619166 31.0819 1.07429Z" fill="url(#paint0_linear)"/>
<defs>
<linearGradient id="paint0_linear" x1="0.00162524" y1="9.43069" x2="46.0053" y2="9.43069" gradientUnits="userSpaceOnUse">
<stop stop-color="#00A99D"/>
<stop offset="9.65257e-08" stop-color="#00A99D"/>
<stop offset="0.9996" stop-color="#00D47F"/>
<stop offset="1" stop-color="#00D47F"/>
</linearGradient>
</defs>
</svg>
